!!!OTL: HINAUS HINAUS ES RUFT DAS VATERLAND
!!!ARE: Europa, Mitteleuropa, Deutschland
!!!SCT: F0415
!!!YEM: Copyright 1995, estate of Helmut Schaffrath.
**kern
*ICvox
*Ivox
*M4/4
*k[b-]
*F:
{8c
8.d
16e
=1
4.f
8e
8.f
16g
8.a
16bn
=2
2cc
8r}
{8cc
8.dd
16cc
=3
4.b-
8g
8.a
16f
8.cc
16a
=4
4g
4g
8r}
{8c
8.a
16g
=5
4.f
8e
8.f
16g
8.a
16bn
=6
2cc
8r}
{8d
8e
8f
=7
4g
8ee
8cc
4g
8a
8bn
=8
4cc
4cc
8r}
{8cc
8dd
8cc
=9
4.b-
8g
8.a
16f
8.cc
16a
=10
2g
8r}
{8cc
8dd
8cc
=11
4.b-
8g
8.a
16f
8.cc
16a
=12
4g
4g
8r}
{8c
8a
8g
=13
8f
8c
8a
8g
8f
8c
8a
8f
=14
4.cc
8b-
8g}
{8g
8.cc
16b-
=15
4.a
8a
8.g
16f
8.g
16cc
=16
2f
8r}
{8c
8a
8g
=17
8f
8c
8a
8g
8f
8c
8a
8f
=18
4.cc
8b-
8g}
{8g
8.cc
16b-
=19
4.a
8a
8.g
16f
8.g
16cc
=20
2f
8r}
==
!!!AGN: Vaterlands -, Heimat - Lied, nationalistisch, Krieg
!!!ONB: ESAC (Essen Associative Code) Database: FINK
!!!AMT: simple quadruple
!!!AIN: vox
!!!EED: Helmut Schaffrath
!!!EEV: 1.0
*-
